resources/svg/paragraph.svg

<svg xmlns="http://www.w3.org/2000/svg" viewBox="0 0 15 15" fill="currentColor"><path fill-rule="evenodd" clip-rule="evenodd" d="M2 5.5C2 3.01472 4.01472 1 6.5 1H13V2H11V14H10V2H8V14H7V10H6.5C4.01472 10 2 7.98528 2 5.5ZM7 9V2H6.5C4.567 2 3 3.567 3 5.5C3 7.433 4.567 9 6.5 9H7Z" fill="black"/></svg>

<svg xmlns="http://www.w3.org/2000/svg" viewBox="0 0 15 15" fill="currentColor"><path fill-rule="evenodd" clip-rule="evenodd" d="M2 5.5A4.5 4.5 0 016.5 1H13v1h-2v12h-1V2H8v12H7v-4h-.5A4.5 4.5 0 012 5.5zM7 9V2h-.5a3.5 3.5 0 100 7H7z" fill="currentColor"/></svg>
